X:57
T:Gan Ainm 
R:Reel
S:Tulla Ceilidh Band, Clare
D:Tulla Ceilidh Band, 'Ireland Green' (label missing)
Z:Bernie Stocks
M:4/4
K:G
cE~E2 cded | cE~E2 G2AB | cE~E2 cded | cABG A3B | cE~E2 cded | 
cE~E2 G2AB | c2cd eged | cABG ABcd || eaag efed | cdef g2fg | 
eaag eged | cABG ABcd | eaag efed | cdef g2fg | afge fded | cABG A3B ||
<end>
<start>
